src/24/actions/gtk-select-font.svg

<svg xmlns="http://www.w3.org/2000/svg" viewBox="0 0 24 24">
  <defs id="defs3051">
    <style type="text/css" id="current-color-scheme">
      .ColorScheme-Text {
        color:#5d656b;
      }
      </style>
  </defs>
  <path style="fill:currentColor;fill-opacity:1;stroke:none" 
     d="M 10.910156 5 L 7.5957031 14.59375 L 7.4726562 15 L 6 19 L 7.6582031 19 L 9.2832031 14.5625 L 14.716797 14.5625 L 16.341797 19 L 18 19 L 16.527344 15 L 16.404297 14.59375 L 13.089844 5 L 12.875 5 L 11.125 5 L 10.910156 5 z M 12.015625 6.9375 L 14.195312 13.28125 L 9.8046875 13.28125 L 12.015625 6.9375 z "
     class="ColorScheme-Text"
     />
  <path
     style="fill:currentColor;fill-opacity:1;stroke:none" 
     d="M 19 4 C 18.44771 4 18 4.4477 18 5 C 18 5.5523 18.44771 6 19 6 C 19.55228 6 20 5.5523 20 5 C 20 4.4477 19.55228 4 19 4 z M 19 8 C 18.44771 8 18 8.4477 18 9 C 18 9.5523 18.44771 10 19 10 C 19.55228 10 20 9.5523 20 9 C 20 8.4477 19.55228 8 19 8 z M 19 12 C 18.44771 12 18 12.4477 18 13 C 18 13.5523 18.44771 14 19 14 C 19.55228 14 20 13.5523 20 13 C 20 12.4477 19.55228 12 19 12 z "
     class="ColorScheme-Text"
     />
</svg>

<svg xmlns="http://www.w3.org/2000/svg" viewBox="0 0 24 24"><defs id="defs3051"><style type="text/css" id="current-color-scheme">.ColorScheme-Text{color:#5d656b}</style></defs><path d="M10.91 5l-3.314 9.594-.123.406L6 19h1.658l1.625-4.438h5.434L16.342 19H18l-1.473-4-.123-.406L13.09 5h-2.18zm1.106 1.938l2.18 6.343H9.804l2.21-6.344zM19 4a1 1 0 1 0 0 2 1 1 0 0 0 0-2zm0 4a1 1 0 1 0 0 2 1 1 0 0 0 0-2zm0 4a1 1 0 1 0 0 2 1 1 0 0 0 0-2z" class="ColorScheme-Text" fill="currentColor"/></svg>
